imgsrc/document-encrypt.svg

<?xml version="1.0" encoding="UTF-8" standalone="no"?>
<!-- Created with Inkscape (http://www.inkscape.org/) -->

<svg
   xmlns:dc="http://purl.org/dc/elements/1.1/"
   xmlns:cc="http://creativecommons.org/ns#"
   xmlns:rdf="http://www.w3.org/1999/02/22-rdf-syntax-ns#"
   xmlns:svg="http://www.w3.org/2000/svg"
   xmlns="http://www.w3.org/2000/svg"
   xmlns:sodipodi="http://sodipodi.sourceforge.net/DTD/sodipodi-0.dtd"
   xmlns:inkscape="http://www.inkscape.org/namespaces/inkscape"
   width="128"
   height="128"
   viewBox="0 0 128 128"
   id="svg2"
   version="1.1"
   inkscape:version="0.92.2 5c3e80d, 2017-08-06"
   sodipodi:docname="document-encrypt.svg">
  <defs
     id="defs4">
    <linearGradient
       id="linearGradient4561"
       x1="24"
       x2="44"
       y1="24"
       y2="24"
       gradientTransform="matrix(2.6,0,0,2.66668,1.6,922.36212)"
       gradientUnits="userSpaceOnUse">
      <stop
         offset="0"
         id="stop2" />
      <stop
         offset="1"
         stop-opacity="0"
         id="stop4" />
    </linearGradient>
  </defs>
  <sodipodi:namedview
     id="base"
     pagecolor="#ffffff"
     bordercolor="#666666"
     borderopacity="1.0"
     inkscape:pageopacity="0.0"
     inkscape:pageshadow="2"
     inkscape:zoom="2.52183"
     inkscape:cx="51.196927"
     inkscape:cy="85.22353"
     inkscape:document-units="px"
     inkscape:current-layer="layer1"
     showgrid="true"
     units="px"
     showguides="true"
     inkscape:guide-bbox="true"
     inkscape:window-width="1366"
     inkscape:window-height="694"
     inkscape:window-x="0"
     inkscape:window-y="48"
     inkscape:window-maximized="1">
    <inkscape:grid
       type="xygrid"
       id="grid4136"
       empspacing="4" />
    <sodipodi:guide
       position="8,140"
       orientation="1,0"
       id="guide4138"
       inkscape:label="Margin Left"
       inkscape:color="rgb(0,0,255)"
       inkscape:locked="false" />
    <sodipodi:guide
       position="120,140"
       orientation="1,0"
       id="guide4140"
       inkscape:label="Margin Right"
       inkscape:color="rgb(0,0,255)"
       inkscape:locked="false" />
    <sodipodi:guide
       position="-20,120"
       orientation="0,1"
       id="guide4142"
       inkscape:label="Margin Top"
       inkscape:color="rgb(0,0,255)"
       inkscape:locked="false" />
    <sodipodi:guide
       position="-16,8"
       orientation="0,1"
       id="guide4144"
       inkscape:label="Margin Bottom"
       inkscape:color="rgb(0,0,255)"
       inkscape:locked="false" />
    <sodipodi:guide
       position="8,8"
       orientation="-0.70710678,0.70710678"
       id="guide4146"
       inkscape:locked="false" />
    <sodipodi:guide
       position="72,56"
       orientation="0.70710678,0.70710678"
       id="guide4148"
       inkscape:locked="false" />
    <sodipodi:guide
       position="20,140"
       orientation="1,0"
       id="guide4150"
       inkscape:label="Rectangle Left"
       inkscape:color="rgb(0,0,255)"
       inkscape:locked="false" />
    <sodipodi:guide
       position="108,140"
       orientation="1,0"
       id="guide4152"
       inkscape:label="Rectangle Right"
       inkscape:color="rgb(0,0,255)"
       inkscape:locked="false" />
    <sodipodi:guide
       position="-20,116"
       orientation="0,1"
       id="guide4154"
       inkscape:label="Shadow Top"
       inkscape:color="rgb(0,0,255)"
       inkscape:locked="false" />
    <sodipodi:guide
       position="-16,12"
       orientation="0,1"
       id="guide4156"
       inkscape:label="Shadow Bottom"
       inkscape:color="rgb(0,0,255)"
       inkscape:locked="false" />
    <sodipodi:guide
       position="-20,104"
       orientation="0,1"
       id="guide4158"
       inkscape:label="Rectangle Top"
       inkscape:color="rgb(0,0,255)"
       inkscape:locked="false" />
    <sodipodi:guide
       position="-16,24"
       orientation="0,1"
       id="guide4160"
       inkscape:label="Rectangle Bottom"
       inkscape:color="rgb(0,0,255)"
       inkscape:locked="false" />
  </sodipodi:namedview>
  <metadata
     id="metadata7">
    <rdf:RDF>
      <cc:Work
         rdf:about="">
        <dc:format>image/svg+xml</dc:format>
        <dc:type
           rdf:resource="http://purl.org/dc/dcmitype/StillImage" />
        <dc:title></dc:title>
      </cc:Work>
    </rdf:RDF>
  </metadata>
  <g
     inkscape:label="Layer 1"
     inkscape:groupmode="layer"
     id="layer1"
     transform="translate(0,-924.36216)">
    <g
       id="g40"
       transform="matrix(4,0,0,4,0,922.36216)">
      <path
         id="path2-3"
         d="M 27,28.5 V 3.5 C 27,2.669 26.331,2 25.5,2 H 6.5 C 5.669,2 5,2.669 5,3.5 v 25 C 5,29.331 5.669,30 6.5,30 h 19 c 0.831,0 1.5,-0.669 1.5,-1.5 z"
         inkscape:connector-curvature="0"
         style="fill:#cccccc" />
      <path
         id="path4-6"
         d="M 6.5,2 C 5.669,2 5,2.669 5,3.5 v 1 C 5,3.669 5.669,3 6.5,3 h 19 C 26.331,3 27,3.669 27,4.5 v -1 C 27,2.669 26.331,2 25.5,2 Z"
         inkscape:connector-curvature="0"
         style="opacity:0.1;fill:#ffffff" />
      <g
         id="g18"
         style="fill:#4c4c4c">
        <path
           id="path6-7"
           d="M 9,8 H 23 V 9 H 9 Z"
           inkscape:connector-curvature="0" />
        <path
           id="path8"
           d="m 9,11 h 14 v 1 H 9 Z"
           inkscape:connector-curvature="0" />
        <path
           id="path10-5"
           d="m 9,14 h 14 v 1 H 9 Z"
           inkscape:connector-curvature="0" />
        <path
           id="path12-3"
           d="m 9,17 h 14 v 1 H 9 Z"
           inkscape:connector-curvature="0" />
        <path
           id="path14"
           d="m 9,20 h 14 v 1 H 9 Z"
           inkscape:connector-curvature="0" />
        <path
           id="path16"
           d="m 9,23 h 14 v 1 H 9 Z"
           inkscape:connector-curvature="0" />
      </g>
      <path
         id="path20"
         d="m 5,28.5 v 1 C 5,30.331 5.669,31 6.5,31 h 19 c 0.831,0 1.5,-0.669 1.5,-1.5 v -1 C 27,29.331 26.331,30 25.5,30 H 6.5 C 5.669,30 5,29.331 5,28.5 Z"
         inkscape:connector-curvature="0"
         style="opacity:0.2" />
    </g>
    <circle
       cx="96.000008"
       cy="1018.0764"
       r="32"
       id="circle2"
       style="fill:#db3c30;fill-opacity:1;stroke-width:2.28571439" />
    <path
       d="m 96.000005,997.50517 c -6.446629,0 -11.428572,5.24273 -11.428572,11.75523 v 4.2445 h -2.535086 c -1.127314,0 -2.036342,1.0812 -2.036342,2.2195 v 20.8664 c 0,1.1383 0.909028,2.0571 2.036342,2.0571 H 109.9632 c 1.12686,0 2.03658,-0.9188 2.03658,-2.0571 v -20.8655 c 0,-1.1383 -0.91201,-2.2926 -2.03658,-2.2195 h -2.53485 v -4.2445 c 0,-6.512 -4.98286,-11.75544 -11.428574,-11.75544 z m 0,4.57143 c 4.029025,0 6.857145,3.1134 6.857145,7.1838 v 4.2445 H 89.142862 v -4.2445 c 0,-4.0709 2.827428,-7.184 6.857143,-7.184 z"
       id="path4"
       inkscape:connector-curvature="0"
       style="opacity:0.2;stroke-width:2.28571439" />
    <path
       d="m 96.000005,995.21969 c -6.446629,0 -11.428572,5.24271 -11.428572,11.75521 v 4.2445 h -2.535086 c -1.127314,0 -2.036342,1.0812 -2.036342,2.2195 v 20.8664 c 0,1.1383 0.909028,2.0571 2.036342,2.0571 H 109.9632 c 1.12686,0 2.03658,-0.9188 2.03658,-2.0571 v -20.8655 c 0,-1.1383 -0.91201,-2.2926 -2.03658,-2.2194 h -2.53485 v -4.2446 c 0,-6.5127 -4.98286,-11.75543 -11.428574,-11.75543 z m 0,4.57142 c 4.029025,0 6.857145,3.11339 6.857145,7.18379 v 4.2445 H 89.142862 v -4.2445 c 0,-4.0709 2.827428,-7.18401 6.857143,-7.18401 z"
       id="path6"
       inkscape:connector-curvature="0"
       style="fill:#ffffff;stroke-width:2.28571439" />
    <path
       d="m 96.000005,986.07637 a 32,32 0 0 0 -32,32.00003 32,32 0 0 0 0.04914,1.3394 32,32 0 0 1 31.949715,-31.05371 32,32 0 0 1 31.952,30.66051 32,32 0 0 0 0.048,-0.9462 32,32 0 0 0 -32,-32.00003 z"
       id="path8-5"
       inkscape:connector-curvature="0"
       style="opacity:0.2;fill:#ffffff;stroke-width:2.28571439" />
    <path
       d="M 127.952,1019.0226 A 32,32 0 0 1 96.000005,1050.0765 32,32 0 0 1 64.05029,1019.4158 32,32 0 0 0 64,1020.3622 a 32,32 0 0 0 32,32 32,32 0 0 0 32,-32 32,32 0 0 0 -0.048,-1.3396 z"
       id="path10"
       inkscape:connector-curvature="0"
       style="opacity:0.2;stroke-width:2.28571439" />
  </g>
</svg>

<svg xmlns="http://www.w3.org/2000/svg" width="32" height="32" version="1">
 <path fill="#ccc" d="m27 28.5v-25c0-0.831-0.669-1.5-1.5-1.5h-19c-0.831 0-1.5 0.669-1.5 1.5v25c0 0.831 0.669 1.5 1.5 1.5h19c0.831 0 1.5-0.669 1.5-1.5z"/>
 <path fill="#fff" opacity=".1" d="m6.5 2c-0.831 0-1.5 0.669-1.5 1.5v1c0-0.831 0.669-1.5 1.5-1.5h19c0.831 0 1.5 0.669 1.5 1.5v-1c0-0.831-0.669-1.5-1.5-1.5z"/>
 <g fill="#4c4c4c">
  <path d="m9 8h14v1h-14z"/>
  <path d="m9 11h14v1h-14z"/>
  <path d="m9 14h14v1h-14z"/>
  <path d="m9 17h14v1h-14z"/>
  <path d="m9 20h14v1h-14z"/>
  <path d="m9 23h14v1h-14z"/>
 </g>
 <path opacity=".2" d="m5 28.5v1c0 0.831 0.669 1.5 1.5 1.5h19c0.831 0 1.5-0.669 1.5-1.5v-1c0 0.831-0.669 1.5-1.5 1.5h-19c-0.831 0-1.5-0.669-1.5-1.5z"/>
 <circle style="fill-rule:evenodd;opacity:0.2" cx="24" cy="24" r="8"/>
 <circle style="fill:#c03630;fill-rule:evenodd" cx="24" cy="23" r="8"/>
 <path style="fill:#ffffff" d="M 24,18 C 22.34,18 21,19.3 21,21 V 22 H 20.5 C 20.223,22 20,22.223 20,22.5 V 27.5 C 20,27.777 20.223,28 20.5,28 H 27.5 C 27.777,28 28,27.777 28,27.5 V 22.5 C 28,22.223 27.777,22 27.5,22 H 27 V 21 C 27,19.3 25.66,18 24,18 Z M 24,19 C 25.11,19 26,19.9 26,21 V 22 H 22 V 21 C 22,19.9 22.89,19 24,19 Z"/>
</svg>
